Newaita-dark/actions/24/go-bottom.svg

<svg height="24" viewBox="0 0 24 24" width="24" xmlns="http://www.w3.org/2000/svg"><g fill="#e0e0e0"><path d="m12.898438 5.148438v8.929687c0 .550781-.441407.992187-.992188.992187-.546875 0-.992188-.441406-.992188-.992187v-8.929687c0-.546876.445313-.992188.992188-.992188.550781 0 .992188.445312.992188.992188zm0 0"/><path d="m5.59375 6.363281 7.015625 7.015625c.386719.386719.386719 1.015625 0 1.402344s-1.015625.386719-1.40625 0l-7.015625-7.015625c-.386719-.386719-.386719-1.015625 0-1.402344.386719-.390625 1.015625-.390625 1.40625 0zm0 0"/><path d="m19.625 7.765625-7.015625 7.015625c-.386719.386719-1.015625.386719-1.402344 0s-.386719-1.015625 0-1.402344l7.015625-7.015625c.386719-.390625 1.015625-.390625 1.402344 0 .386719.386719.386719 1.015625 0 1.402344zm0 0"/><path d="m13.890625 18.046875c0 1.097656-.886719 1.988281-1.984375 1.988281-1.09375 0-1.984375-.890625-1.984375-1.988281 0-1.09375.890625-1.984375 1.984375-1.984375 1.097656 0 1.984375.890625 1.984375 1.984375zm0 0"/></g></svg>

<?xml version="1.0" encoding="UTF-8"?>
<svg xmlns="http://www.w3.org/2000/svg" xmlns:xlink="http://www.w3.org/1999/xlink" width="24px" height="24px" viewBox="0 0 24 24" version="1.1">
<g id="surface1">
<path style=" stroke:none;fill-rule:nonzero;fill:rgb(87.843138%,87.843138%,87.843138%);fill-opacity:1;" d="M 12.898438 5.148438 L 12.898438 14.078125 C 12.898438 14.628906 12.457031 15.070312 11.90625 15.070312 C 11.359375 15.070312 10.914062 14.628906 10.914062 14.078125 L 10.914062 5.148438 C 10.914062 4.601562 11.359375 4.15625 11.90625 4.15625 C 12.457031 4.15625 12.898438 4.601562 12.898438 5.148438 Z M 12.898438 5.148438 "/>
<path style=" stroke:none;fill-rule:nonzero;fill:rgb(87.843138%,87.843138%,87.843138%);fill-opacity:1;" d="M 5.59375 6.363281 L 12.609375 13.378906 C 12.996094 13.765625 12.996094 14.394531 12.609375 14.78125 C 12.222656 15.167969 11.59375 15.167969 11.203125 14.78125 L 4.1875 7.765625 C 3.800781 7.378906 3.800781 6.75 4.1875 6.363281 C 4.574219 5.972656 5.203125 5.972656 5.59375 6.363281 Z M 5.59375 6.363281 "/>
<path style=" stroke:none;fill-rule:nonzero;fill:rgb(87.843138%,87.843138%,87.843138%);fill-opacity:1;" d="M 19.625 7.765625 L 12.609375 14.78125 C 12.222656 15.167969 11.59375 15.167969 11.207031 14.78125 C 10.820312 14.394531 10.820312 13.765625 11.207031 13.378906 L 18.222656 6.363281 C 18.609375 5.972656 19.238281 5.972656 19.625 6.363281 C 20.011719 6.75 20.011719 7.378906 19.625 7.765625 Z M 19.625 7.765625 "/>
<path style=" stroke:none;fill-rule:nonzero;fill:rgb(87.843138%,87.843138%,87.843138%);fill-opacity:1;" d="M 13.890625 18.046875 C 13.890625 19.144531 13.003906 20.035156 11.90625 20.035156 C 10.8125 20.035156 9.921875 19.144531 9.921875 18.046875 C 9.921875 16.953125 10.8125 16.0625 11.90625 16.0625 C 13.003906 16.0625 13.890625 16.953125 13.890625 18.046875 Z M 13.890625 18.046875 "/>
</g>
</svg>
